X:445
T:Famous Lady
A:Wyresdale, Lancashire
B:E and J Winder, 1835-41
L:1/8
N:1st few letters of title not quite clear, could be "Gra"
O:England
Z:Richard Robinson 
%%RRN:"A Good time"
%%TUNEURL: http://www.leeds.ac.uk/music/Info/RRTuneBk/gettune/00000ece.html
%%ID:00000ece
K:F
F3G A2d2 | c2(A2 A2)(d2 | c2) (A2 A2)GF | (G4 G2)A2 |\
F3G A2(d2 | c2)A2 A2(d2 | c2)A2 (BA)(GF) | (F4 F4) ::
f2f2 (gf)(ed) | f2f2 (gf)(ed) | (ef)g2 G4 | \
F3G A2(d2 | c2)(F2 F2)(d2 | c2)A2 (BA)(GF) | (F4 F4):|
%%newpage
%page 27
